X:1
T:Title
%%score { ( 1 3 ) | 2 }
L:1/8
Q:1/4=100
M:6/8
K:Bb
V:1 treble nm="Grand Piano"
V:3 treble 
V:2 bass 
V:1
 [Fd][Fd][Fd] [Fc]2 [Fc] | [FB]3 [DF]3 | [Fd][Fd][Fd] cBG | [DF]6 | [DF][DF][DF] [EF]2 [EF] | %5
w: G.~W.~Fields * * * *|||||
 [FB]3 [Fd]3 | ccc d2 c | [DB]6 | .[DF]3 .[DF]3 | GGG G2 G | F3 F2 F | F6 | .[DF]3 .[DF]3 | %13
w: ||||||||
 GGG G2 G | F3 F2 F | F6 |] %16
w: |||
V:2
 [B,,B,][B,,B,][B,,B,] [F,A,]2 [E,A,] | [D,B,]3 [B,,B,]3 | [B,,B,][B,,B,][B,,B,] [E,B,]2 [E,B,E] | %3
 [B,,B,]6 | [B,,B,][B,,B,][B,,B,] [C,A,]2 [C,B,] | [D,B,]3 [B,,B,]3 | %6
 [F,A,E][F,A,E][F,A,E] [F,B,F]2 [F,A,E] | [B,,B,]6 | .[B,,B,]3 .[B,,B,]3 | %9
 [E,B,E][E,B,E][E,B,E] [E,B,E]2 [E,B,E] | .[F,B,D]3 .[F,A,C]3 | [B,,B,][B,,B,][B,,B,] [B,,B,]3 | %12
 .[B,,B,]3 .[B,,B,]3 | [E,B,E][E,B,E][E,B,E] [E,B,E]2 [E,B,E] | .[F,D]3 .[F,C]3 | %15
 [B,,B,][B,,B,][B,,B,] [B,,B,]3 |] %16
V:3
 x6 | x6 | z3 .G3 | x6 | x6 | x6 | x6 | x6 | x6 | x6 | x6 | DDD D3 | x6 | x6 | x6 | DDD D3 |] %16

